X: 1150
T: An Buachaillin Dreoite
R: jig
M: 6/8
K: Dmajor
|:A,DD E{F}ED|EFD D2 C|A,DD E/F/ED|GED CA,G,|
A,DD E/F/ED|EFD DFA|~c3 dcA|1 GEC D2C:|2 GEC D2E||
|:~F3 ~G3|ABA D2E|~F3 D (3FGA|GED CDE|
~F3 ~G3|AGE Bcd|e{f}ec dcA|1 GEC D2E:|2 GEC D3||

